X: 61
T:Old Joe Clark
M:4/4
L:1/8
C:Traditional
R:Reel
K:A
ee |:"A"e2f2=g2ff|e-fedc2c-d|e2f2=g2ff|"G"e2[eB][eB][e2B2]c-d|!
"A"e2f2=g2ff|e-fedc2AB|
c-BAc"E" B-AGF|[1"A"[A2e2][Ae][Ae][A2e2]af:|[2"A"A3B-A2cB|||:!
"A"[A2e2]AB
 cBcd|efed cBA2|
[A2e2]AB cBAF|"G"B2[B2=G2][B2=G2]Bc|"A"[A2e2]AB cBcd|!
efed cBA2|cBAc "E"B
AG
B|"A"[A2A2][AA][AA][A4A4]|
